!!!COM: Vivaldi, Antonio
!!!OTL: Concerto a violino solo, No. 11
!!!XEN: Violin Concerto No. 11 in D major
!!!OPR: Il Cimento dell'armonia e dell'inventione
!!!XEN: The Contest of Harmony and Invention
!!!OPS: Opus 8
!!!ONM: No. 11
!!!OMV: Movement 2.
!!!YEC: Copyright 1996, Center for Computer Assisted Research in the Humanities
!!!YEM: Rights to all derivative electronic formats reserved.
!!!YEM: Refer to licensing agreement for important restrictions.
!!!OMD: Largo
**kern	**kern	**kern	**kern
*Iviola	*Ivioln	*Ivioln	*Ivioln
*ICstr	*ICstr	*ICstr	*ICstr
!viola 	!violino 2	!violino 1	!violino principale
*clefC3	*clefG2	*clefG2	*clefG2
*k[b-]	*k[b-]	*k[b-]	*k[b-]
*d:	*d:	*d:	*d:
*M4/4	*M4/4	*M4/4	*M4/4
=1-	=1-	=1-	=1-
8d\L	8dd\L	8ff\L	1r
8d\	8dd\	8ff\	.
8d\	8dd\	8ff\	.
8d\J	8dd\J	8ff\J	.
8a\L	8dd\L	8ee\L	.
8a\	8dd\	8ee\	.
8a\	8cc#\	8ee\	.
8a\J	8cc#\J	8ee\J	.
=2	=2	=2	=2
8A/L	8ee\L	8gg\L	1r
8A/	8ee\	8gg\	.
8A/	8cc#\	8gg\	.
8A/J	8cc#\J	8gg\J	.
8d\L	8a/L	8gg\L	.
8d\	8a/	8gg\	.
8d\	8a/	8ff\	.
8d\J	8a/J	8ff\J	.
=3	=3	=3	=3
8g\L	8b-\L	8ee-\L	1r
8g\	8b-\	8ee-\	.
8g\	8b-\	8dd\	.
8g\J	8gg\J	8dd\J	.
8a\L	8ee\L	8cc#\L	.
8a\	8ee\	8cc#\	.
8d\	8ff\	8dd\	.
8d\J	8ff\J	8dd\J	.
=4	=4	=4	=4
8G/L	8ee\L	8dd\L	2r
8G/	8ee\	8dd\	.
8A/	8ee\	8cc#\	.
8A/J	8ee\J	8cc#\J	.
4d\	8dd\L	8dd\L	[2aa\
.	8dd\	8ff\	.
4r	8dd\	8ff\	.
.	8dd\J	8ff\J	.
=5	=5	=5	=5
1r	8cc\L	8ee\L	4aa_\
.	8cc\	8ee\	.
.	8cc\	8ee\	16aa\LL]
.	.	.	(16cc\
.	8cc\J	8ee\J	16b-\
.	.	.	16a\JJ)
.	8b-\L	8dd\L	8ddd\L
.	8b-\	8dd\	8dd\J
.	8b-\	8dd\	8r
.	8dd\J	8ff\J	8dd\
=6	=6	=6	=6
8A/L	8cc#\L	8ee\L	8gg\L
8A/	8cc#\	8ee\	8cc#\J
8A/	8cc#\	8ee\	(16a\LL
.	.	.	16bb-\
8A/J	8cc#\J	8ee\J	16aa\
.	.	.	16gg\JJ)
8d\L	8a/L	8dd\L	8.ff\L
8d\	8a/	8dd\	.
.	.	.	16ee\Jk
8d\	8a/	8dd\	4ddT\
8d\J	8a/J	8dd\J	.
=7	=7	=7	=7
8c\L	8a/L	8dd\L	[4ff#\
8c\	8a/	8dd\	.
8c\	8a/	8dd\	16ff#\LL]
.	.	.	(16dd\
8c\J	8a/J	8dd\J	16ff#\
.	.	.	16aa\JJ)
8B-/L	8b-\L	8dd\L	[4gg\
8B-/	8b-\	8dd\	.
8B-/	8b-\	8dd\	16gg\LL]
.	.	.	(16dd\
8G/J	8b-\J	8dd\J	16gg\
.	.	.	16bb-\JJ)
=8	=8	=8	=8
8e\L	8bn\L	8ee\L	[4gg#\
8e\	8b\	8ee\	.
8d\	8b\	8ee\	16gg#\LL]
.	.	.	(16ee\
8d\J	8b\J	8ee\J	16gg#\
.	.	.	16bbn\JJ)
8c/L	8cc\L	8ee\L	8aa\L
8c/	8cc\	8ee\	8a\J
8c/	8cc\	8ee\	8r
8A/J	8cc\J	8ee\J	8ee\
=9	=9	=9	=9
8d\L	8a/L	8ff\L	8ff\L
8d\	8a/	8ff\	16ee\L
.	.	.	16dd\JJ
8d\	8a/	8ff\	8dd\L
8d\J	8a/J	8ff\J	8dd\J
8Bn/L	8a/L	8ff#\L	4.dd#\
8B/	8a/	8ff#\	.
8B/	8a/	8ff#\	.
8B/J	8a/J	8dd#\J	8aa\
=10	=10	=10	=10
8e/L	8bn/L	8ee\L	8gg#\L
8A/	8a/	8cc\	16aa\L
.	.	.	16a\JJ
8e/	8a/	8cc\	(8cc\L
8E/J	8g#/J	8bn\J	16bnt\L)
.	.	.	16a\JJ
4A/	8a\L	8cc\L	4a/
.	8cc\	8ee\	.
4r	8cc\	8ee\	4r
.	8cc\J	8ee\J	.
=11	=11	=11	=11
1r	8bn/L	8dd\L	[4bbn\
.	8b/	8dd\	.
.	8b/	8dd\	16bb\LL]
.	.	.	(16dd\
.	8g#/J	8dd\J	16cc\
.	.	.	16bn\JJ)
.	8a/L	8cc\L	(16aa\LL
.	.	.	16gg#\J)
.	8a/	8cc\	8aa\J
.	8a/	8cc\	8r
.	8a/J	8cc\J	8aa\
=12	=12	=12	=12
8e\L	8g#/L	8bn\L	8dd\L
8e\	8g#/	8b\	8gg#\J
8e\	8g#/	8b\	16bbn\LL
.	.	.	(16dd\
8e\J	8g#/J	8b\J	16cc\
.	.	.	16bn\JJ)
8A/L	8e/L	8cc\L	16cc\LL
.	.	.	16b\J
8A/	8e/	8cc\	8a\J
8A/	8e/	8cc\	8r
8A/J	8e/J	8cc\J	8aa\
=13	=13	=13	=13
8A/L	8cc#\L	8ee\L	8cc#\L
8A/	8cc#\	8ee\	8bb-\J
8A/	8cc#\	8ee\	(16aa\LL
.	.	.	16gg\)
8A/J	8cc#\J	8ee\J	(16ff\
.	.	.	16ee\JJ)
8d\L	8a/L	8ff\L	16ff\LL
.	.	.	16ee\J
8d\	8a/	8ff\	8dd\J
8d\	8a/	8ff\	8r
8d\J	8a/J	8ff\J	8dd\
=14	=14	=14	=14
8d\L	8a/L	8ff\L	8aa\L
8d\	8a/	8ff\	16ff\L
.	.	.	16ee\JJ
8d\	8a/	8ff\	8dd\L
8d\J	8a/J	8ff\J	8aa\J
8g\L	8g/L	8dd\L	4.bb-\
8g\	8g/	8dd\	.
8g\	8b-/	8dd\	.
8g\J	8b-/J	8dd\J	8bb-\
=15	=15	=15	=15
8c\L	8b-\L	8ee\L	8gg\L
8c\	8b-\	8ee\	16ee\L
.	.	.	16dd\JJ
8c\	8b-\	8ee\	8cc\L
8c\J	8b-\J	8ee\J	8gg\J
8f\L	8a/L	8cc\L	4.aa\
8f\	8a/	8cc\	.
8f\	8a/	8cc\	.
8f\J	8a/J	8dd\J	8dd\
=16	=16	=16	=16
8g/L	8b-\L	8ee-\L	8ee-\L
8G/	8b-\	8ee-\	16gg\L
.	.	.	16bb-\JJ
8G/	8b-\	8ee-\	8ee-\L
8G/J	8b-\J	8dd\J	8dd\J
8A/L	8cc#\L	8een\L	4.cc#\
8A/	8cc#\	8ee\	.
8A/	8cc#\	8ee\	.
8A/J	8cc#\J	8ee\J	8aa\
=17	=17	=17	=17
8e\L	8bn\L	8dd\L	(16gg#\LL
.	.	.	16aa\J
8e\	8b\	8dd\	8bbn\J)
8e\	8b\	8dd\	8dd\L
8e\J	8een\J	8dd\J	8bn\J
8A/L	8ee\L	8cc#\L	16cc#\LL
.	.	.	16a\
8A/	8ee\	8cc#\	16cc#\
.	.	.	16dd\JJ
8A/	8ee\	8cc#\	8ee\L
8A/J	8a\J	8cc#\J	8aa\J
=18	=18	=18	=18
8e\L	8bn\L	8dd\L	(16gg#\LL
.	.	.	16aa\J
8e\	8b\	8dd\	8bbn\J)
8e\	8b\	8dd\	8dd\L
8e\J	8ee\J	8dd\J	8bn\J
8A/L	8ee\L	8cc#\L	8cc#\L
8A/	8ee\	8cc#\	8a\J
8A/	8ee\	8cc#\	8r
8A/J	8a\J	8cc#\J	8aa\
=19	=19	=19	=19
8d/L	8a/L	8dd\L	8ff\L
8G/	8f/	8dd\	16ee\L
.	.	.	16dd\JJ
8A/	8e/	8cc#\	8.cc#t\L
8A/J	8e/J	8cc#\J	.
.	.	.	16dd\Jk
8d\L	8f/L	8dd\L	4dd\
8d\	8f/	8dd\	.
8d\	8f/	8dd\	8r
8d\J	8f/J	8dd\J	8aa\
=20	=20	=20	=20
8G/L	8b-\L	8dd\L	(16b-\LL
.	.	.	16dd\J
8G/	8b-\	8dd\	8gg\J)
8G/	8b-\	8dd\	8bb-\L
8G/J	8b-\J	8dd\J	(8dd\J
8A/L	8e/L	8dd\L	8ddT\L
8A/	8e/	8cc#\	8cc#\J)
8A/	8e/	8cc#\	8r
8A/J	8a/J	8cc#\J	8aa\
=21	=21	=21	=21
8d/L	8a/L	8dd\L	8ff\L
8G/	8f/	8dd\	16ee\L
.	.	.	16dd\JJ
8A/	8e/	8cc#\	8.cc#t\L
8A/J	8e/J	8cc#\J	.
.	.	.	16dd\Jk
2D;/	2f;/	2dd;\	2dd;\
==|!	==|!	==|!	==|!
*-	*-	*-	*-
!!!CDT: 1678/3/4/-1741/7/28
!!!OCY: Italia
!!!ODE: Count Wenzeslaus von Morzin of Bohemia; Count Wenceslas of Morzin
!!!ODT: 1725///
!!!OPC: Venezia; Venice
!!!AGN: concerto
!!!AST: baroque
!!!AMT: simple quadruple
!!!PPR: Michel-Charles Le Ce`ne
!!!PC#: Le Cene No. 521
!!!PDT: 1725///
!!!PPP: Amsterdam
!!!SCT: RV 210
!!!SMA1: The cooperation of the following libraries is gratefully acknowledged:
!!!SMA2: Saechsische Landesbibliothek, Dresden; Biblioteca Nazionale
!!!SMA3: Universitaria, Turin; Henry Watson Music Library, Manchester.
!!!YOR: New York: Dover Publications, Inc. 1995
!!!AIN: viola violn
!!!EEV: 1.0
!!!RDT: 1994/5/11/
!!!YER: 1996/10/31/
!!!YEP: Center for Computer Assisted Research in the Humanities
!!!YEN: United States of America
!!!EFL: 2/3
!!!ENC: Edmund Correia, Jr.
!!!EED: Eleanor Selfridge-Field
